X: 449
T: Bu Yaz Geçen Günlerimiz...
C: Yesârî Âsım Arsoy
O: Turkey
F: http://compmusic.upf.edu/node/140
N: ussak--sarki--curcuna--bu_yaz--yesari_asim_arsoy
N: makam= ussak
N: form= sarki
N: usul= curcuna = 10/8
M: 10/8
L: 1/16
K: C _2/4B   
Q: 1/4=180
%%MIDI tuningsystem comma53
z4 c2d4d4d6  | g2f2 e2e2 d2d2 c2d6  | \
w:  Bu  yaz  ge çen   |  gün *  *  le *  ri *  miz   | 
c6d4e4c2 B2A2  | A6G4e2 d2c2 d2e2  | 
w:  ha tı rın dan   |  çık *  ma  | 
d16-d4  | d2e2 c2B2 d2cB AGA6  | z4 c2d4d4d6  | \
w:  sın    |  SAZ  |  Bu  yaz  ge çen   | 
g2f2 e2e2 d2d2 c2d6  | 
w:  gün *  *  le *  ri *  miz   | 
c6d4e4c2 B2A2  | A6G4e2 d2c2 d2e2  | d16-d4  | \
w:  ha tı rın dan   |  çık *  ma  |  sın    | 
d2e2 c4 BAGA Bcd6  | 
w:  SAZ  | 
A6B4c4d6  | c2d2 e4 d2d4cc BAB2  | ^3/4f6g4f2 e2d6  | \
w:  Ok şa dı ğım   |  o  *  el *  le ri   |  baş ka  bir  *  el   | 
c4 B2A4B2 c2d6  | 
w:  sık  | 
e2d2 c2B2 A2A8-A2  | d2e2 c4 BAGA Bcd6  | \
w:  ma *  *  *  *  sın    |  SAZ  | 
A6B4c4d6  | 
w:  Ok şa dı ğım   | 
c2d2 e4 d2d4cc BAB2  | ^3/4f6g4f2 e2d6  | \
w:  o  *  el *  le ri   |  baş ka  bir  *  el   | 
c4 B2A4B2 c2d6  | 
w:  sık  | 
e2d2 c2B2 A2A8-A2  | a2b2 g4 ^3/4fede fga6  | \
w:  ma *  *  *  *  sın    |  SAZ  | 
a6a4b2 a2a6  | 
w:  Şen  gön lü *  müz   | 
a4 c'2b2 a2a4a2 b2g2  | ^3/4fef2 g2a4a2 b2a6  | \
w:  se viş *  *  mek ten   |  *  *  *  u san ma *  sın   | 
a2g2 ^3/4f2e2 d2a2 g2f2 g2b2  | 
w:  bık *  *  *  *  ma  | 
a16-a4  | a2g2 ^3/4f2e2 d2a2 g2f2 g2b2  | a16-a4  | \
w:  sın    |  SAZ  |  sın    | 
a2e2 e2^3/4f4g4a6  | e4 e4 d2a2 g2f2 e2d2  | 
w:  *  *  u san ma sın   |  bık *  *  ma  | 
d16-d4  | d2e2 c4 BAGA Bcd6  | A6B4c4d6  | \
w:  sın    |  SAZ  |  Ok şa dı ğım   | 
c2d2 e4 d2d4cc BAB2  | 
w:  o  *  el *  le ri   | 
^3/4f6g4f2 e2d6  | c4 B2A4B2 c2d6  | \
w:  baş ka  bir  *  el   |  sık  | 
e2d2 c2B2 A2A8-A2  | d2e2 c4 BAGA Bcd6  | 
w:  ma *  *  *  *  sın    |  SAZ  | 
A6B4c4d6  | c2d2 e4 d2d4cc BAB2  | ^3/4f6g4f2 e2d6  | \
w:  Ok şa dı ğım   |  o  *  el *  le ri   |  baş ka  bir  *  el   | 
c4 B2A4B2 c2d6  | 
w:  sık  | 
e2d2 c2B2 A2A8-A2  | |


